packages/core/src/svgs/isp.svg

<svg width="24" height="24" viewBox="0 0 24 24" fill="none" xmlns="http://www.w3.org/2000/svg">
<g clip-path="url(#clip0_31_11933)">
<path d="M0 0H24V24H0V0Z" fill="#F0F3FA"/>
<path d="M15.5315 9.79707C15.8059 9.37323 15.9682 8.88656 16.0029 8.38279C16.0029 6.65564 14.3057 5.36993 12.6429 5.35707C11.4643 5.3485 10.2772 5.8585 9.68145 6.91707L7.28145 11.1214C7.12716 11.3527 7.02885 11.6168 6.99431 11.8928C6.98145 12.4156 7.28145 12.9214 7.71431 13.2856L10.9715 7.5685C11.4257 6.75422 12.6343 6.44993 13.4572 6.86564C14.3443 7.29422 14.7 8.34422 14.2115 9.17136L10.7186 15.2785C10.4357 15.8056 10.8857 16.2942 11.4086 16.2856C11.6786 16.2856 11.9357 16.1699 12.0686 15.9299L15.5315 9.79707ZM8.41717 14.2028C8.15747 14.6301 8.01278 15.1173 7.99717 15.6171C7.99717 17.3442 9.6686 18.6256 11.34 18.6428C12.5272 18.6556 13.6672 18.1414 14.2672 17.0828L16.6929 12.8271C16.8386 12.5656 17.0057 12.2828 17.0057 11.9999C17.0057 11.4985 16.7229 11.0528 16.29 10.7142L12.9729 16.4571C12.6515 17.0356 12.0043 17.3056 11.3443 17.3056C10.4015 17.3014 9.4886 16.7014 9.49717 15.6599C9.49717 15.3942 9.58717 15.1028 9.73288 14.8542L13.2943 8.74279C13.56 8.25422 13.1572 7.73136 12.6429 7.71422C12.36 7.70564 12.0857 7.84279 11.9443 8.09136L8.41288 14.2028H8.41717ZM16.7143 9.71993C17.2988 10.0842 17.7219 10.6581 17.8972 11.3241C18.0725 11.9902 17.9866 12.698 17.6572 13.3028L15.2315 17.5585C14.8311 18.2286 14.2607 18.781 13.578 19.1595C12.8954 19.5381 12.1248 19.7295 11.3443 19.7142C8.58431 19.6928 6.11574 16.9156 7.28145 14.1428C6.0686 13.3414 5.63574 11.8714 6.3386 10.6456L8.7386 6.44136C9.52288 5.06993 11.0786 4.28564 12.6429 4.28564C15.4029 4.28564 17.7857 6.9385 16.7186 9.71993H16.7143Z" fill="#3337D6"/>
</g>
<defs>
<clipPath id="clip0_31_11933">
<rect width="24" height="24" fill="white"/>
</clipPath>
</defs>
</svg>

<svg xmlns="http://www.w3.org/2000/svg" width="24" height="24" fill="none" viewBox="0 0 24 24"><g clip-path="url(#a)"><path fill="#F0F3FA" d="M0 0h24v24H0z"/><path fill="#3337D6" d="M15.532 9.797a3 3 0 0 0 .47-1.414c0-1.727-1.696-3.013-3.36-3.026-1.178-.009-2.365.502-2.96 1.56l-2.4 4.204a1.8 1.8 0 0 0-.288.772c-.013.523.287 1.028.72 1.393l3.258-5.717c.454-.815 1.662-1.12 2.485-.703.887.428 1.243 1.478.754 2.305L10.72 15.28c-.283.527.167 1.015.69 1.007.27 0 .527-.116.66-.356zm-7.115 4.406c-.26.427-.404.914-.42 1.414 0 1.727 1.672 3.009 3.343 3.026 1.187.013 2.327-.502 2.927-1.56l2.426-4.256c.146-.261.313-.544.313-.827 0-.502-.283-.947-.716-1.286l-3.317 5.743c-.322.579-.969.849-1.629.849-.942-.005-1.855-.605-1.847-1.646 0-.266.09-.557.236-.806l3.561-6.111c.266-.489-.137-1.012-.651-1.029a.77.77 0 0 0-.699.377l-3.531 6.112zm8.297-4.483a2.7 2.7 0 0 1 .943 3.583l-2.425 4.255a4.43 4.43 0 0 1-3.888 2.156c-2.76-.021-5.228-2.798-4.063-5.571-1.212-.802-1.645-2.272-.942-3.497l2.4-4.205c.784-1.371 2.34-2.155 3.904-2.155 2.76 0 5.143 2.653 4.076 5.434z"/></g><defs><clipPath id="a"><path fill="#fff" d="M0 0h24v24H0z"/></clipPath></defs></svg>
